src/assets/outline/Battery2full.svg

<svg width="24" height="24" viewBox="0 0 24 24"  xmlns="http://www.w3.org/2000/svg">
<path d="M20.5 15.25C20.09 15.25 19.75 14.91 19.75 14.5C19.75 14.09 20.09 13.75 20.5 13.75C21.09 13.75 21.22 13.66 21.23 13.66C21.25 13.6 21.25 13.25 21.25 13V11C21.25 10.75 21.25 10.41 21.21 10.32C21.2 10.33 21.05 10.25 20.5 10.25C20.09 10.25 19.75 9.91 19.75 9.5C19.75 9.09 20.09 8.75 20.5 8.75C22.58 8.75 22.75 9.77 22.75 11V13C22.75 14.23 22.58 15.25 20.5 15.25Z" />
<path d="M6.38007 14.7501C6.32007 14.7501 6.26007 14.7401 6.20007 14.7301C5.80007 14.6301 5.55007 14.2201 5.65007 13.8201C5.95007 12.6301 5.95007 11.3701 5.65007 10.1801C5.55007 9.7801 5.79007 9.3701 6.20007 9.2701C6.60007 9.1701 7.00007 9.4201 7.10007 9.8201C7.46007 11.2501 7.46007 12.7601 7.10007 14.1801C7.02007 14.5201 6.71007 14.7501 6.38007 14.7501Z" />
<path d="M9.88007 14.7497C9.82007 14.7497 9.76007 14.7397 9.70007 14.7297C9.30007 14.6297 9.05007 14.2197 9.15007 13.8197C9.45007 12.6297 9.45007 11.3697 9.15007 10.1797C9.05007 9.7797 9.29007 9.3697 9.70007 9.2697C10.1001 9.1697 10.5101 9.4097 10.6101 9.8197C10.9701 11.2497 10.9701 12.7597 10.6101 14.1797C10.5201 14.5197 10.2101 14.7497 9.88007 14.7497Z" />
<path d="M13 19.75H7C2.59 19.75 1.25 18.41 1.25 14V10C1.25 5.59 2.59 4.25 7 4.25H13C17.41 4.25 18.75 5.59 18.75 10V14C18.75 18.41 17.41 19.75 13 19.75ZM7 5.75C3.43 5.75 2.75 6.43 2.75 10V14C2.75 17.57 3.43 18.25 7 18.25H13C16.57 18.25 17.25 17.57 17.25 14V10C17.25 6.43 16.57 5.75 13 5.75H7Z" />
</svg>

<?xml version="1.0" encoding="UTF-8"?>
<svg width="24" height="24" viewBox="0 0 24 24" xmlns="http://www.w3.org/2000/svg">
 <path d="m20.5 15.25c-0.41 0-0.75-0.34-0.75-0.75s0.34-0.75 0.75-0.75c0.59 0 0.72-0.09 0.73-0.09 0.02-0.06 0.02-0.41 0.02-0.66v-2c0-0.25 0-0.59-0.04-0.68-0.01 0.01-0.16-0.07-0.71-0.07-0.41 0-0.75-0.34-0.75-0.75s0.34-0.75 0.75-0.75c2.08 0 2.25 1.02 2.25 2.25v2c0 1.23-0.17 2.25-2.25 2.25z"/>
 <path d="m6.3801 14.75c-0.06 0-0.12-0.01-0.18-0.02-0.4-0.1-0.65-0.51-0.55-0.91 0.3-1.19 0.3-2.45 0-3.64-0.1-0.4 0.14-0.81 0.55-0.91 0.4-0.1 0.8 0.15 0.9 0.55 0.36 1.43 0.36 2.94 0 4.36-0.08 0.34-0.39 0.57-0.72 0.57z"/>
 <path d="m9.8801 14.75c-0.06 0-0.12-0.01-0.18-0.02-0.4-0.1-0.65-0.51-0.55-0.91 0.3-1.19 0.3-2.45 0-3.64-0.1-0.4 0.14-0.81 0.55-0.91 0.40003-0.1 0.81003 0.14 0.91003 0.55 0.36 1.43 0.36 2.94 0 4.36-0.09 0.34-0.4 0.57-0.73003 0.57z"/>
 <path d="m13 19.75h-6c-4.41 0-5.75-1.34-5.75-5.75v-4c0-4.41 1.34-5.75 5.75-5.75h6c4.41 0 5.75 1.34 5.75 5.75v4c0 4.41-1.34 5.75-5.75 5.75zm-6-14c-3.57 0-4.25 0.68-4.25 4.25v4c0 3.57 0.68 4.25 4.25 4.25h6c3.57 0 4.25-0.68 4.25-4.25v-4c0-3.57-0.68-4.25-4.25-4.25h-6z"/>
</svg>
